icon_installer/data/icons/scalable/actions/show-camera-dead-symbolic.svg

<?xml version="1.0" encoding="UTF-8"?>
<svg height="16px" viewBox="0 0 16 16" width="16px" xmlns="http://www.w3.org/2000/svg">
    <g fill="#222222">
        <path d="m 2.398438 2 c -1.328126 0 -2.398438 1.070312 -2.398438 2.398438 v 7.203124 c 0 1.328126 1.070312 2.398438 2.398438 2.398438 h 7.203124 c 1.328126 0 2.398438 -1.070312 2.398438 -2.398438 v -7.203124 c 0 -1.328126 -1.070312 -2.398438 -2.398438 -2.398438 z m 0.574218 2.992188 l 0.007813 0.007812 h 0.019531 v 0.023438 l 0.5 0.5 l 0.5 -0.5 v -0.023438 h 0.023438 l 0.007812 -0.007812 l 0.007812 0.007812 h 0.960938 v 0.964844 l 0.019531 0.019531 l -0.527343 0.527344 l 0.488281 0.488281 h 0.019531 v 0.019531 l 0.019531 0.015625 l -0.019531 0.019532 v 0.945312 h -0.941406 l -0.027344 0.027344 l -0.027344 -0.027344 h -0.003906 v -0.003906 l -0.5 -0.496094 l -0.527344 0.527344 l -0.027344 -0.027344 h -0.945312 v -0.945312 l -0.019531 -0.019532 l 0.019531 -0.015625 v -0.019531 h 0.019531 l 0.488281 -0.488281 l -0.527343 -0.527344 l 0.019531 -0.015625 v -0.96875 h 0.964844 z m 5 0 l 0.007813 0.007812 h 0.019531 v 0.023438 l 0.503906 0.5 l 0.496094 -0.496094 v -0.027344 h 0.027344 l 0.003906 -0.007812 l 0.007812 0.007812 h 0.960938 v 0.96875 l 0.019531 0.019531 l -0.527343 0.523438 l 0.492187 0.488281 h 0.015625 v 0.019531 l 0.019531 0.019531 l -0.019531 0.015626 v 0.945312 h -0.941406 l -0.027344 0.027344 l -0.027344 -0.027344 h -0.003906 v -0.003906 l -0.496094 -0.496094 l -0.503906 0.5 l -0.027344 0.027344 l -0.027344 -0.027344 h -0.945312 v -0.945312 l -0.019531 -0.015626 l 0.019531 -0.019531 v -0.019531 h 0.019531 l 0.488281 -0.488281 l -0.527343 -0.523438 l 0.019531 -0.019531 v -0.96875 h 0.96875 z m -5.972656 4.007812 h 8 v 1 h -4 v 1.667969 c 0 0.738281 -0.667969 1.332031 -1.5 1.332031 s -1.515625 -0.59375 -1.5 -1.332031 v -1.667969 h -1 z m 0 0"/>
        <path d="m 12 8 l 3 -3 h 1 v 6 h -1 z m 0 0"/>
    </g>
</svg>

<svg xmlns="http://www.w3.org/2000/svg" width="16" height="16"><g fill="#222"><path d="M2.398 2A2.394 2.394 0 0 0 0 4.398v7.204A2.394 2.394 0 0 0 2.398 14h7.204A2.394 2.394 0 0 0 12 11.602V4.398A2.394 2.394 0 0 0 9.602 2zm.575 2.992L2.98 5H3v.023l.5.5.5-.5V5h.023l.008-.008L4.04 5H5v.965l.02.02-.528.527L4.98 7H5v.02l.02.015-.02.02V8h-.941l-.028.027L4.004 8H4v-.004L3.5 7.5l-.527.527L2.945 8H2v-.945l-.02-.02L2 7.02V7h.02l.488-.488-.528-.528L2 5.97V5h.965zm5 0L7.98 5H8v.023l.504.5L9 5.027V5h.027l.004-.008L9.04 5H10v.969l.02.02-.528.523.492.488H10v.02l.02.02-.02.015V8h-.941l-.028.027L9.004 8H9v-.004L8.504 7.5 8 8l-.027.027L7.945 8H7v-.945l-.02-.016.02-.02V7h.02l.488-.488-.528-.524.02-.02V5h.969zM2 9h8v1H6v1.668C6 12.406 5.332 13 4.5 13s-1.516-.594-1.5-1.332V10H2zm0 0"/><path d="m12 8 3-3h1v6h-1zm0 0"/></g></svg>
